Newaita/actions/32/view-object-histogram-logarithmic.svg

<svg height="32" viewBox="0 0 32 32" width="32" xmlns="http://www.w3.org/2000/svg"><g fill="#424242"><path d="m5.292969 28.695312v-25.136718c0-.367188-.296875-.664063-.664063-.664063-.363281 0-.660156.296875-.660156.664063v25.136718c0 .367188.296875.660157.660156.660157.367188 0 .664063-.292969.664063-.660157zm0 0"/><path d="m3.308594 28.035156h25.136718c.367188 0 .660157-.296875.660157-.664062 0-.363282-.292969-.660156-.660157-.660156h-25.136718c-.367188 0-.664063.296874-.664063.660156 0 .367187.296875.664062.664063.664062zm0 0"/><path d="m15.875 2.894531c-.363281 0-.660156.296875-.660156.664063v1.320312h-1.984375c-.367188 0-.660157.296875-.660157.664063v2.644531h-1.984374c-.367188 0-.664063.296875-.664063.664062v3.304688h-1.984375c-.367188 0-.660156.296875-.660156.664062v10.664063c0 .320313.292968.582031.660156.582031h19.847656c.363282 0 .660156-.261718.660156-.582031v-12.648437c0-.367188-.296874-.664063-.660156-.664063h-1.324218c-.367188 0-.660157.296875-.660157.664063v3.304687h-2.648437v-3.96875c0-.367187-.292969-.660156-.660156-.660156h-1.984376v-2.648438c0-.363281-.296874-.660156-.664062-.660156h-1.984375v-2.644531c0-.367188-.292969-.664063-.660156-.664063zm0 0"/></g></svg>

<?xml version="1.0" encoding="UTF-8"?>
<svg xmlns="http://www.w3.org/2000/svg" xmlns:xlink="http://www.w3.org/1999/xlink" width="32px" height="32px" viewBox="0 0 32 32" version="1.1">
<g id="surface1">
<path style=" stroke:none;fill-rule:nonzero;fill:rgb(25.882354%,25.882354%,25.882354%);fill-opacity:1;" d="M 5.292969 28.695312 L 5.292969 3.558594 C 5.292969 3.191406 4.996094 2.894531 4.628906 2.894531 C 4.265625 2.894531 3.96875 3.191406 3.96875 3.558594 L 3.96875 28.695312 C 3.96875 29.0625 4.265625 29.355469 4.628906 29.355469 C 4.996094 29.355469 5.292969 29.0625 5.292969 28.695312 Z M 5.292969 28.695312 "/>
<path style=" stroke:none;fill-rule:nonzero;fill:rgb(25.882354%,25.882354%,25.882354%);fill-opacity:1;" d="M 3.308594 28.035156 L 28.445312 28.035156 C 28.8125 28.035156 29.105469 27.738281 29.105469 27.371094 C 29.105469 27.007812 28.8125 26.710938 28.445312 26.710938 L 3.308594 26.710938 C 2.941406 26.710938 2.644531 27.007812 2.644531 27.371094 C 2.644531 27.738281 2.941406 28.035156 3.308594 28.035156 Z M 3.308594 28.035156 "/>
<path style=" stroke:none;fill-rule:nonzero;fill:rgb(25.882354%,25.882354%,25.882354%);fill-opacity:1;" d="M 15.875 2.894531 C 15.511719 2.894531 15.214844 3.191406 15.214844 3.558594 L 15.214844 4.878906 L 13.230469 4.878906 C 12.863281 4.878906 12.570312 5.175781 12.570312 5.542969 L 12.570312 8.1875 L 10.585938 8.1875 C 10.21875 8.1875 9.921875 8.484375 9.921875 8.851562 L 9.921875 12.15625 L 7.9375 12.15625 C 7.570312 12.15625 7.277344 12.453125 7.277344 12.820312 L 7.277344 23.484375 C 7.277344 23.804688 7.570312 24.066406 7.9375 24.066406 L 27.785156 24.066406 C 28.148438 24.066406 28.445312 23.804688 28.445312 23.484375 L 28.445312 10.835938 C 28.445312 10.46875 28.148438 10.171875 27.785156 10.171875 L 26.460938 10.171875 C 26.09375 10.171875 25.800781 10.46875 25.800781 10.835938 L 25.800781 14.140625 L 23.152344 14.140625 L 23.152344 10.171875 C 23.152344 9.804688 22.859375 9.511719 22.492188 9.511719 L 20.507812 9.511719 L 20.507812 6.863281 C 20.507812 6.5 20.210938 6.203125 19.84375 6.203125 L 17.859375 6.203125 L 17.859375 3.558594 C 17.859375 3.191406 17.566406 2.894531 17.199219 2.894531 Z M 15.875 2.894531 "/>
</g>
</svg>
